X:1
T:A Song of Victory
T:A Song of Victory
T:Charles Hutchinson Gabriel
T:Charles Hutchinson Gabriel, 1904
T:Public Domain Courtesy of the Cyber Hymnal™
T:Public Domain Courtesy of the Cyber Hymnal™
C:Charles Hutchinson Gabriel
Z:Public Domain
Z:Courtesy of the Cyber Hymnal™
%%score ( 1 2 ) ( 3 4 )
L:1/8
Q:1/4=100
M:6/8
K:G
V:1 treble 
V:2 treble 
V:3 bass 
V:4 bass 
V:1
 [B,D]3 [^A,E]3 | [B,D][B,B][B,A] [B,G][B,F][B,E] | [B,D]3 [B,G]2 [B,A] | [CG]3 [CF]2 z | %4
w: 1.~Loud- ly|un- to the world is a|cho- rus re-|sound- ing|
w: 2.~Press- ing|on to the bat- tle, each|sol- dier re-|joic- es,|
w: 3.~Glo- ry!|glo- ry to God in the|high- est for-|ev- er!|
 [CD]3 [CE]3 | [CD][Cc][CB] [CA][CG][DF] | [DG]3 [DA]3 | [DB]3- [DB]2 z | [B,D]3 [^A,E]3 | %9
w: From the|hosts of the Lord, as they|march a-|long; *|Rare in|
w: Sing- ing|joy- ful- ly un- to the|gra- cious|King; *|Earth is|
w: For the|King in His beau- ty shall|yet ap-|pear; *|Shout a-|
 [B,D][B,B][B,A] [B,G][CA][DB] | [Ec]3 [CE]2 [EG] | [^DB]3 [DB]2 z | [EA]3 [CE]3 | %13
w: har- mo- ny, send- ing the|ech- oes re-|bound- ing,|Swell- ing|
w: quiv- er- ing un- der the|tu- mult of|voic- es,|While the|
w: loud, for Je- ho- vah, our|God, will de-|liv- er!|His the|
 [^A,G][A,F][A,E] [B,D][DG][GB] | [Fd]3 [DF]3 | [DG]3- [DG]2 z ||"^Refrain" B2 [FB] B3 | %17
w: might- i- ly from the vic-|tor- ious|throng. *||
w: arch- es of Hea- ven with|mu- sic|ring. *|Vic- to- ry!|
w: bat- tle, and vic- to- ry|draw- eth|near. *||
 [DB]2 [B,G] [DB]2 [B,G] | (B2 B [DB]2) x | (G2 G [B,G]2) z | B2 [FB] B3 | [DB]2 [B,G] [DB]2 [GB] | %22
w: |||||
w: vic- to- ry rings|a- * *|loud * *|* the bat-|tle cry, Un- til|
w: |||||
 (c2 c [Fc]2) x | (c2 c [Fc]2) z | c2 [Ac] [Ec]3 | c2 [Ac] c3 | [Fc]2 [CF] [Fd]2 [Ec] | %27
w: |||||
w: the * *|glo- * *|ri- ous ech-|oes reach the|vault- ed sky; O-|
w: |||||
 (B2 B [DB]2) z | B2 [FB] B3 | [EB]2 [B,G] [DB]2 [B,G] | (B2 c [DB]2) x | (G2 G [B,G]2) z | %32
w: |||||
w: ver * *|the world now|be un- furled His|flag * *|from * *|
w: |||||
 B2 [FB] B3 | [DB]2 [B,G] [DB]2 [B,G] | (B2 B [EB]2) x | (c2 c [Ec]2) z | ^A2 [GA] A2 [GA] | %37
w: |||||
w: * shore to|shore; Loy- al and|true * *|in * *|the ranks each faith-|
w: |||||
 [DB]2 [B,G] [DB]2 [GB] | !fermata![Bd]3 !fermata![Ac]3 | [GB]6 |] %40
w: |||
w: ful sol- dier stands,|Glad- ly|o-|
w: |||
V:2
 x6 | x6 | x6 | x6 | x6 | x6 | x6 | x6 | x6 | x6 | x6 | x6 | x6 | x6 | x6 | x6 || DEG FE x | x6 | %18
 D3- E x2 | B,3- x3 | DEG FE x | x6 | F3- ^E x2 | F3- x3 | FG x4 | FG E2 G x | x6 | D3- x3 | %28
 DEG FE x | x6 | D3- E x2 | B,3- x3 | DEG FE x | x6 | E3- =F x2 | E3- x3 | EFE F x2 | x6 | x6 | %39
 x6 |] %40
V:3
 (G,2 D,) (^C,2 E,) | [G,,G,][G,,G,][G,,G,] [G,,D,][G,,D,][G,,G,] | [G,,G,]3 [G,,D,]2 [G,,G,] | %3
 [D,A,]3 [D,A,]2 z | [D,F,]3 [D,F,]3 | [D,F,][D,F,][D,F,] [D,F,][D,F,][C,A,] | [B,,G,]3 [D,F,]3 | %7
 G,3- G,2 z | (G,2 D,) (^C,2 E,) | [G,,G,][G,,G,][G,,G,] G,G,G, | [C,G,]3 [C,G,]2 [C,E,] | %11
 [B,,F,]3 [B,,F,]2 z | [C,C]3 [C,G,]3 | [^C,G,][C,G,][C,G,] [D,G,][D,B,][D,D] | [D,A,]3 [D,C]3 | %15
 [G,,B,]3- [G,,B,]2 z || [G,,G,]2 [G,,G,] [G,,D,]3 | [G,,G,]2 [G,,D,] [G,,G,]2 [G,,D,] | %18
 ([G,,G,]2 [G,,G,] [G,,G,]2) z | ([G,,D,]2 [G,,D,] [G,,D,]2) z | [G,,G,]2 [G,,G,] [G,,D,]3 | %21
 [G,,G,]2 [G,,D,] [G,,G,]2 [G,,D,] | ([A,,D,]2 [A,,D,] [A,,D,]2) z | ([D,A,]2 [D,A,] [D,A,]2) z | %24
 [D,A,]2 [D,A,] [D,F,]3 | [D,A,]2 [D,A,] [D,F,]3 | [D,A,]2 [D,A,] [D,A,]2 [D,F,] | G,2 G, G,2 z | %28
 [G,,G,]2 [G,,G,] [G,,D,]3 | [G,,G,]2 [G,,D,] [G,,G,]2 [G,,D,] | ([G,,G,]2 [G,,G,] [G,,G,]2) z | %31
 ([G,,D,]2 [G,,D,] [G,,D,]2) z | [G,,G,]2 [G,,G,] [G,,D,]3 | [G,,G,]2 [G,,D,] G,2 G, | %34
 ([E,^G,]2 [E,G,] [E,G,]2) z | ([A,,A,]2 [A,,A,] [A,,A,]2) z | [^C,G,]2 [C,G,] [C,G,]2 [C,G,] | %37
 [D,G,]2 D, [D,G,]2 [D,D] | !fermata![D,D]3 !fermata![D,D]3 | [G,,G,D]6 |] %40
V:4
 G,,3 G,,3 | x6 | x6 | x6 | x6 | x6 | x6 | G,3- G,2 x | G,,3 G,,3 | x3 G,G,G, | x6 | x6 | x6 | x6 | %14
 x6 | x6 || x6 | x6 | x6 | x6 | x6 | x6 | x6 | x6 | x6 | x6 | x6 | (G,2 G, G,2) x | x6 | x6 | x6 | %31
 x6 | x6 | x3 G,2 G, | x6 | x6 | x6 | x2 D, x3 | x6 | x6 |] %40

